images/flux-icon.svg

<?xml version="1.0" encoding="UTF-8" standalone="no"?>
<svg
   width="44.218365"
   height="61.46014"
   viewBox="0 0 44.218365 61.46014"
   version="1.1"
   id="svg757"
   sodipodi:docname="flux-icon.svg"
   inkscape:version="1.1.1 (3bf5ae0d25, 2021-09-20)"
   xmlns:inkscape="http://www.inkscape.org/namespaces/inkscape"
   xmlns:sodipodi="http://sodipodi.sourceforge.net/DTD/sodipodi-0.dtd"
   xmlns="http://www.w3.org/2000/svg"
   xmlns:svg="http://www.w3.org/2000/svg"
   xmlns:rdf="http://www.w3.org/1999/02/22-rdf-syntax-ns#"
   xmlns:cc="http://creativecommons.org/ns#"
   xmlns:dc="http://purl.org/dc/elements/1.1/">
  <defs
     id="defs761" />
  <sodipodi:namedview
     id="namedview759"
     pagecolor="#ffffff"
     bordercolor="#999999"
     borderopacity="1"
     inkscape:pageshadow="0"
     inkscape:pageopacity="0"
     inkscape:pagecheckerboard="0"
     showgrid="false"
     fit-margin-top="1"
     fit-margin-left="1"
     fit-margin-right="1"
     fit-margin-bottom="1"
     inkscape:zoom="13.59375"
     inkscape:cx="21.958621"
     inkscape:cy="30.970115"
     inkscape:window-width="1870"
     inkscape:window-height="1043"
     inkscape:window-x="1970"
     inkscape:window-y="25"
     inkscape:window-maximized="1"
     inkscape:current-layer="svg757" />
  <!-- Generator: Sketch 56.3 (81716) - https://sketch.com -->
  <title
     id="title739">flux-icon</title>
  <desc
     id="desc741">Created with Sketch.</desc>
  <g
     id="flux-icon"
     stroke="none"
     stroke-width="1"
     fill="none"
     fill-rule="evenodd"
     transform="translate(-10.016067,-1)">
    <g
       id="Group"
       transform="translate(11,2)">
      <path
         d="m 0.80313461,15.779135 c -1.04942307,-0.6825 -1.04942307,-2.218846 0,-2.90077 L 20.181981,0.27951923 c 0.573461,-0.37269231 1.3125,-0.37269231 1.885961,0 L 41.447365,12.878365 c 1.049423,0.681924 1.049423,2.21827 0,2.90077 L 22.067942,28.377981 c -0.573461,0.372692 -1.3125,0.372692 -1.885961,0 z"
         id="Fill-1"
         fill="#326ce5" />
      <path
         d="m 24.185135,18.002308 h 1.34423 c 0.785193,0 1.276154,-0.849808 0.88327,-1.529423 L 22.008404,8.8442308 c -0.392308,-0.6796154 -1.373654,-0.6796154 -1.766539,0 l -4.40423,7.6286542 c -0.392308,0.679615 0.09808,1.529423 0.883269,1.529423 h 1.344807 c 0.563077,0 1.019424,0.456923 1.019424,1.02 v 8.7075 l 0.902307,0.58673 c 0.691731,0.45 1.583654,0.45 2.275385,0 l 0.902308,-0.58673 v -8.7075 c 0,-0.563077 0.456346,-1.02 1.02,-1.02"
         id="Fill-3"
         fill="#c1d2f7" />
      <path
         d="m 27.839077,34.837558 -4.674231,-3.038654 v 1.44 c 1.525385,0.653077 3.094039,1.161923 4.674231,1.598654"
         id="Fill-5"
         fill="#326ce5" />
      <path
         d="m 23.165077,35.828019 v 2.021539 c 1.544423,0.471346 3.107308,0.858461 4.654038,1.239807 5.051539,1.245577 9.822693,2.421346 13.659231,6.258462 0.195,0.194423 0.377885,0.392885 0.559039,0.591923 0.393461,-0.751731 0.196154,-1.744038 -0.59077,-2.255192 l -7.590577,-4.935577 c -1.842692,-0.608077 -3.719999,-1.073077 -5.575384,-1.53 -1.749808,-0.431539 -3.460962,-0.861923 -5.115577,-1.390962"
         id="Fill-7"
         fill="#326ce5" />
      <path
         d="m 19.08525,34.169942 c -0.654808,-0.338077 -1.299808,-0.700961 -1.922308,-1.120961 l -1.735961,1.128461 c 1.170577,0.86077 2.396538,1.558846 3.658269,2.143847 z"
         id="Fill-9"
         fill="#326ce5" />
      <path
         d="M 24.894173,40.605115 C 24.313788,40.462038 23.737442,40.319538 23.165135,40.173577 V 42.1605 c 0.423461,0.106154 0.846346,0.211731 1.2675,0.315577 5.051538,1.245 9.822692,2.420769 13.659807,6.257884 0.0063,0.0069 0.01212,0.01327 0.01904,0.02019 l 1.640769,-1.067308 c -0.09981,-0.104423 -0.193846,-0.211731 -0.297692,-0.315 -4.216154,-4.216731 -9.475385,-5.513077 -14.560385,-6.766731"
         id="Fill-11"
         fill="#326ce5" />
      <path
         d="m 19.08525,38.990712 c -2.195192,-0.751731 -4.275577,-1.719231 -6.173654,-3.17827 l -1.699615,1.105385 c 2.416731,1.993269 5.1075,3.2025 7.873269,4.099038 z"
         id="Fill-13"
         fill="#326ce5" />
      <path
         d="m 19.08525,43.380981 c -3.778269,-0.99 -7.331538,-2.199231 -10.3673077,-4.842116 l -1.6707692,1.086346 c 3.5653849,3.285001 7.8069229,4.658077 12.0380769,5.745578 z"
         id="Fill-15"
         fill="#326ce5" />
      <path
         d="m 23.165077,46.3935 c 3.9525,1.020577 7.669038,2.240769 10.817308,5.044615 l 1.661538,-1.08 c -3.678462,-3.458077 -8.0925,-4.838654 -12.478846,-5.953269 z"
         id="Fill-17"
         fill="#326ce5" />
      <path
         d="m 4.57875,41.229923 -1.6488461,1.071923 c 0.057692,0.05942 0.1101923,0.121154 0.1696153,0.18 4.2167308,4.216731 9.4748078,5.513077 14.5603848,6.766731 4.404231,1.085192 8.594423,2.120192 12.139038,4.909615 l 1.690385,-1.099038 C 27.495865,49.696846 22.738558,48.515885 18.121442,47.378192 13.120673,46.145308 8.3956731,44.975885 4.57875,41.229923"
         id="Fill-19"
         fill="#326ce5" />
      <path
         d="M 1.0755577,44.506096 C 0.88344231,44.313981 0.70286538,44.118404 0.52401923,43.921673 -0.22771154,44.674558 -0.13944231,45.972635 0.80325,46.585327 l 5.7063461,3.710192 c 2.5257693,1.045385 5.1669229,1.699039 7.7642309,2.339423 4.054615,0.999231 7.928077,1.9575 11.284038,4.280769 l 1.725577,-1.122692 c -3.815769,-2.868461 -8.243077,-3.9675 -12.548653,-5.029038 -5.0509621,-1.245 -9.8221159,-2.420769 -13.6592313,-6.257885"
         id="Fill-21"
         fill="#326ce5" />
      <path
         d="m 19.644115,58.834269 c 0.380193,0.184616 0.75577,0.379039 1.125,0.587885 0.440193,0.09289 0.908077,0.01615 1.299231,-0.238269 l 0.957692,-0.6225 C 19.949308,56.5035 16.528731,55.461 13.119692,54.592731 Z"
         id="Fill-23"
         fill="#326ce5" />
    </g>
  </g>
  <metadata
     id="metadata763">
    <rdf:RDF>
      <cc:Work
         rdf:about="">
        <dc:title>flux-icon</dc:title>
      </cc:Work>
    </rdf:RDF>
  </metadata>
</svg>

<?xml version="1.0" encoding="UTF-8"?>
<svg width="64px" height="64px" viewBox="0 0 64 64" version="1.1" xmlns="http://www.w3.org/2000/svg" xmlns:xlink="http://www.w3.org/1999/xlink">
    <!-- Generator: Sketch 56.3 (81716) - https://sketch.com -->
    <title>flux-icon</title>
    <desc>Created with Sketch.</desc>
    <g id="flux-icon" stroke="none" stroke-width="1" fill="none" fill-rule="evenodd">
        <g id="Group" transform="translate(11.000000, 2.000000)">
            <path d="M0.803134615,15.7791346 C-0.246288462,15.0966346 -0.246288462,13.5602885 0.803134615,12.8783654 L20.1819808,0.279519231 C20.7554423,-0.0931730769 21.4944808,-0.0931730769 22.0679423,0.279519231 L41.4473654,12.8783654 C42.4967885,13.5602885 42.4967885,15.0966346 41.4473654,15.7791346 L22.0679423,28.3779808 C21.4944808,28.7506731 20.7554423,28.7506731 20.1819808,28.3779808 L0.803134615,15.7791346 Z" id="Fill-1" fill="#326CE5"></path>
            <path d="M24.1851346,18.0023077 L25.5293654,18.0023077 C26.3145577,18.0023077 26.8055192,17.1525 26.4126346,16.4728846 L22.0084038,8.84423077 C21.6160962,8.16461538 20.63475,8.16461538 20.2418654,8.84423077 L15.8376346,16.4728846 C15.4453269,17.1525 15.9357115,18.0023077 16.7209038,18.0023077 L18.0657115,18.0023077 C18.6287885,18.0023077 19.0851346,18.4592308 19.0851346,19.0223077 L19.0851346,27.7298077 L19.9874423,28.3165385 C20.6791731,28.7665385 21.5710962,28.7665385 22.2628269,28.3165385 L23.1651346,27.7298077 L23.1651346,19.0223077 C23.1651346,18.4592308 23.6214808,18.0023077 24.1851346,18.0023077" id="Fill-3" fill="#C1D2F7"></path>
            <path d="M27.8390769,34.8375577 L23.1648462,31.7989038 L23.1648462,33.2389038 C24.6902308,33.8919808 26.2588846,34.4008269 27.8390769,34.8375577" id="Fill-5" fill="#326CE5"></path>
            <path d="M23.1650769,35.8280192 L23.1650769,37.8495577 C24.7095,38.3209038 26.2723846,38.7080192 27.8191154,39.0893654 C32.8706538,40.3349423 37.6418077,41.5107115 41.4783462,45.3478269 C41.6733462,45.54225 41.8562308,45.7407115 42.0373846,45.93975 C42.4308462,45.1880192 42.2335385,44.1957115 41.4466154,43.6845577 L33.8560385,38.7489808 C32.0133462,38.1409038 30.1360385,37.6759038 28.2806538,37.2189808 C26.5308462,36.7874423 24.8196923,36.3570577 23.1650769,35.8280192" id="Fill-7" fill="#326CE5"></path>
            <path d="M19.08525,34.1699423 C18.4304423,33.8318654 17.7854423,33.4689808 17.1629423,33.0489808 L15.4269808,34.1774423 C16.5975577,35.0382115 17.8235192,35.7362885 19.08525,36.3212885 L19.08525,34.1699423 Z" id="Fill-9" fill="#326CE5"></path>
            <path d="M24.8941731,40.6051154 C24.3137885,40.4620385 23.7374423,40.3195385 23.1651346,40.1735769 L23.1651346,42.1605 C23.5885962,42.2666538 24.0114808,42.3722308 24.4326346,42.4760769 C29.4841731,43.7210769 34.2553269,44.8968462 38.0924423,48.7339615 C38.0987885,48.7408846 38.1045577,48.7472308 38.1114808,48.7541538 L39.75225,47.6868462 C39.6524423,47.5824231 39.5584038,47.4751154 39.4545577,47.3718462 C35.2384038,43.1551154 29.9791731,41.8587692 24.8941731,40.6051154" id="Fill-11" fill="#326CE5"></path>
            <path d="M19.08525,38.9907115 C16.8900577,38.2389808 14.8096731,37.2714808 12.9115962,35.8124423 L11.2119808,36.9178269 C13.6287115,38.9110962 16.3194808,40.1203269 19.08525,41.0168654 L19.08525,38.9907115 Z" id="Fill-13" fill="#326CE5"></path>
            <path d="M19.08525,43.3809808 C15.3069808,42.3909808 11.7537115,41.18175 8.71794231,38.5388654 L7.04717308,39.6252115 C10.6125577,42.9102115 14.8540962,44.2832885 19.08525,45.3707885 L19.08525,43.3809808 Z" id="Fill-15" fill="#326CE5"></path>
            <path d="M23.1650769,46.3935 C27.1175769,47.4140769 30.8341154,48.6342692 33.9823846,51.4381154 L35.6439231,50.3581154 C31.9654615,46.9000385 27.5514231,45.5194615 23.1650769,44.4048462 L23.1650769,46.3935 Z" id="Fill-17" fill="#326CE5"></path>
            <path d="M4.57875,41.2299231 L2.92990385,42.3018462 C2.98759615,42.3612692 3.04009615,42.423 3.09951923,42.4818462 C7.31625,46.6985769 12.5743269,47.9949231 17.6599038,49.2485769 C22.0641346,50.3337692 26.2543269,51.3687692 29.7989423,54.1581923 L31.4893269,53.0591538 C27.4958654,49.6968462 22.7385577,48.5158846 18.1214423,47.3781923 C13.1206731,46.1453077 8.39567308,44.9758846 4.57875,41.2299231" id="Fill-19" fill="#326CE5"></path>
            <path d="M1.07555769,44.5060962 C0.883442308,44.3139808 0.702865385,44.1184038 0.524019231,43.9216731 C-0.227711538,44.6745577 -0.139442308,45.9726346 0.80325,46.5853269 L6.50959615,50.2955192 C9.03536538,51.3409038 11.6765192,51.9945577 14.2738269,52.6349423 C18.3284423,53.6341731 22.2019038,54.5924423 25.5578654,56.9157115 L27.2834423,55.7930192 C23.4676731,52.9245577 19.0403654,51.8255192 14.7347885,50.7639808 C9.68382692,49.5189808 4.91267308,48.3432115 1.07555769,44.5060962" id="Fill-21" fill="#326CE5"></path>
            <path d="M19.6441154,58.8342692 C20.0243077,59.0188846 20.3998846,59.2133077 20.7691154,59.4221538 C21.2093077,59.5150385 21.6771923,59.4383077 22.0683462,59.1838846 L23.0260385,58.5613846 C19.9493077,56.5035 16.5287308,55.461 13.1196923,54.5927308 L19.6441154,58.8342692 Z" id="Fill-23" fill="#326CE5"></path>
        </g>
    </g>
</svg>
